!!!!SEGMENT: pl-kk--kk-i-11--008_anonim--o-salutaris-hostia.krn
!!!cenid: 16xx:1247
!!!COM: Anonim
!!!COM-rismid: pe30004985
!!!CDT:
!!!CNT:
!!!OTL: O salutaris hostia
!!!PDT:
!!!AGN: Sacred
!!!SMS-siglum: PL-Kk
!!!SMS-shelfmark: Kk.I.11
!!!SMS-shelfwork: 008 W
!!!SMS-variant:
!!!SMS-altvar:
!!!NIFC-rismid: 1001154158
!!!URL-scan: http://repozytorium.nifc.pl/skany/pl-kk-nut--i-11
!!!ONB-nifc: UWAGA: T (skan 0023), B (0019)
**kern	**text	**kern	**text
*part2	*part2	*part1	*part1
*staff2	*staff2	*staff1	*staff1
*Ibass	*	*Itenor	*
*I"[Bassus]	*	*I"[Tenor]	*
*I'B	*	*I'T	*
*clefF4	*	*clefC4	*
*k[b-]	*	*k[b-]	*
*F:	*	*F:	*
*M2/1	*	*M2/1	*
*met(c)	*	*met(c)	*
*all\right	*	*all\right	*
*2\right	*	*2\right	*
=1-	=1-	=1-	=1-
1r	.	1F	O
*	*	*lig	*
1C	O	1G	ſa-
=2-	=2-	=2-	=2-
*lig	*	*	*
1D	ſa-	1F	.
1C	.	1E	.
*Xlig	*	*Xlig	*
=3-	=3-	=3-	=3-
2FF/	-lu-	1F	-lu-
!LO:TX:t=S.B.P.	!	!	!
1F	-ta-	.	.
.	.	1G	-ta-
2E\	-ris	.	.
=4-	=4-	=4-	=4-
!	!	!LO:TX:t=S.B.P.	!
4F\	Ho-	1F	-ris
4E\	.	.	.
4D\	.	.	.
4C\	.	.	.
*	*	*lig	*
4BB-/	.	1G	Ho-
4AA/	.	.	.
1GG/	.	.	.
=5-	=5-	=5-	=5-
.	.	1A	.
2FF#X/	.	.	.
4GG/	.	1B-	.
4AA/	.	.	.
4BB-/	.	.	.
4C/	.	.	.
=6-	=6-	=6-	=6-
4D\	.	1A	.
4E\	.	.	.
2F\	.	.	.
*	*	*Xlig	*
2C/	.	1.G	.
2BB-/	.	.	.
=7-	=7-	=7-	=7-
2.C/	.	.	.
.	.	2G/	-sti-
4C/	-sti-	.	.
1FF	-a	1F	-a
!LO:LB:g=original	!	!	!
=8-	=8-	=8-	=8-
1r	.	1A	quae
1E	quae	1c	cae-
=9-	=9-	=9-	=9-
4G\	cae-	1B-	-li
8F\L	.	.	.
8E\J	.	.	.
4D\	.	.	.
4E\	-li	.	.
*	*	*lig	*
4F\	pan-	1A	pan-
4E\	.	.	.
4D\	.	.	.
4C\	.	.	.
=10-	=10-	=10-	=10-
2BB-/	.	1G	.
2C/	-dis	.	.
*	*	*Xlig	*
1D	oſ-	1F	-dis
!	!	!LO:LB:g=original	!
=11-	=11-	=11-	=11-
1.C	.	1.G	oſ-
2C/	-ti-	2G/	-ti-
=12-	=12-	=12-	=12-
1FF	-um	1F	-um
0r	.	1A	bel-
=13-	=13-	=13-	=13-
.	.	1c	-la
1r	.	1c	pre-
=14-	=14-	=14-	=14-
1D	bel-	1d	-munt
2F\	.	1c	hos-
2F\	-la	.	.
=15-	=15-	=15-	=15-
2G\	pre-	1B-	-ti-
2D\	-munt	.	.
4F\	.	1A	-li-
4E\	.	.	.
4D\	hos-	.	.
4C/	-ti-	.	.
=16-	=16-	=16-	=16-
*	*	*lig	*
2BB-/	.	1G	-a
1C	.	.	.
.	.	1A	.
!LO:LB:g=original	!	!	!
2.D/	.	.	.
=17-	=17-	=17-	=17-
.	.	1F	.
4C/	.	.	.
4BB-/	.	.	.
4AA/	.	.	.
*	*	*Xlig	*
2.BB-/	.	1F	da
4AA/	.	.	.
=18-	=18-	=18-	=18-
*	*	*lig	*
2.GG/	.	1G	ro-
4GG/	-li-	.	.
2D\	-a	1F	.
2F\	da	.	.
=19-	=19-	=19-	=19-
1G	ro-	1E	.
*	*	*Xlig	*
1.F	.	1F	-bur
=20-	=20-	=20-	=20-
.	.	1G	fer
2E\	.	.	.
!	!	!LO:LB:g=original	!
2.D/	.	1F	au-
4C/	.	.	.
=21-	=21-	=21-	=21-
*	*	*lig	*
4BB-/	.	1G	.
4AA/	.	.	.
1GG	.	.	.
.	.	1A	.
2FF#X/	-bur	.	.
=22-	=22-	=22-	=22-
4GG/	fer	1B-	.
4AA/	.	.	.
4BB-/	.	.	.
4C/	.	.	.
4D\	.	1A	.
4E\	.	.	.
2F\	.	.	.
*	*	*Xlig	*
=23-	=23-	=23-	=23-
2C/	au-	1.G	-xi-
2BB-/	.	.	.
2.C/	-xi-	.	.
.	.	2G/	-li-
4C/	-li-	.	.
=24-	=24-	=24-	=24-
1FF;	-um	1F;<	-um
!LO:LB:g=original	!	!LO:LB:g=original	!
0r	.	00r	.
=25-	=25-	=25-	=25-
.	.	.	.
1r	.	.	.
=26-	=26-	=26-	=26-
1C	U-	.	.
(<1D	-ni	00r	.
=27-	=27-	=27-	=27-
2.C/)	.	.	.
4BB-/	Tri-	.	.
4AA/	-no-	.	.
4FF/	.	.	.
4BB-/	.	.	.
4AA/	.	.	.
=28-	=28-	=28-	=28-
4GG/	.	.	.
4FF/	.	.	.
2GG/	.	.	.
2FF/	-q(ue)	1F	U-
1F\	Do-	.	.
=29-	=29-	=29-	=29-
*	*	*lig	*
.	.	1G	-ni
2E\	.	.	.
2F\	.	(1F	.
4AA/	.	.	.
4BB-/	.	.	.
*	*	*Xlig	*
=30-	=30-	=30-	=30-
2C/	.	4E/)	.
.	.	4C/	Tri-
2BB-/	.	1F	-no-
2.C/	.	.	.
.	.	2E/	.
4C/	-mi-	.	.
=31-	=31-	=31-	=31-
1FF	-no	1F	-q(ue)
0r	.	1F	U-
=32-	=32-	=32-	=32-
.	.	2.A\	-ni
.	.	4A\	Tri-
1r	.	4G\	-no-
.	.	4A\	.
.	.	4B-\	.
.	.	4c\	.
!LO:LB:g=original	!	!	!
=33-	=33-	=33-	=33-
2D\	ſit	2d\	.
1F	ſem-	2c\	-q(ue)
.	.	4B-\	Do-
.	.	4A\	.
2E\	-pi-	2G/	.
=34-	=34-	=34-	=34-
1D	-ter-	2A/	.
.	.	2F/	.
!	!	!LO:LB:g=original	!
2C/	.	2E/	.
2BB-/	-na	1F/	.
=35-	=35-	=35-	=35-
2.C/	glo-	.	.
.	.	2E/	-mi-
4C/	-ri-	.	.
2D\	-a	2F/	-no
!	!	!LO:TX:t=P:problem:kreska pseudotaktowa	!
2D\	qui	2r	.
=36-	=36-	=36	=36-
1F	Vi-	2A\	sit
.	.	(<1c	sem-
2C/	-tam	.	.
4c\	ſi-	1c	.
4B-\	-ne	.	.
=37-	=37-	=37-	=37-
4A-X\	Ter-	.	.
4G\	.	.	.
4F\	.	1c)	.
4E-X\	.	.	.
2.G\	.	.	.
.	.	1B-\	-pi-
4F\	.	.	.
=38-	=38-	=38-	=38-
2E-\	.	.	.
2F\	.	1A	-ter-
2D\	.	.	.
2E-X\	.	1G/	-na
!LO:LB:g=original	!	!	!
=39-	=39-	=39-	=39-
2C/	.	.	.
2D/	.	1F	glo-
2BB-/	.	.	.
!	!	!LO:TX:t=P:problem:kreska pseudotaktowa	!
2C/	-mi-	2E/	-ri-
=40-	=40-	=40	=40-
2FF/	-no	2F/	-a
4F\	Ter-	1A	qui
4E\	.	.	.
4D/	.	.	.
4C/	.	.	.
4BB-/	.	2.B-\	Vi-
4AA/	.	.	.
=41-	=41-	=41-	=41-
4BB-/	.	.	.
4C/	.	4A\	-tam
2D/	.	4G/	si-
.	.	4F/	-ne
2.C/	.	2.c\	Ter-
4C/	-mi-	4c\	-mi-
=42-	=42-	=42-	=42-
1FF	-no	1c	-no
1C	no-	00r	.
=43-	=43-	=43-	=43-
(<1D	-bis	.	.
2.C/)	.	.	.
4BB-/	do-	.	.
=44-	=44-	=44-	=44-
4AA/	-net	.	.
4FF/	.	.	.
4BB-/	.	.	.
4AA/	.	.	.
!LO:LB:g=original	!	!	!
4GG/	.	1r	.
4FF/	.	.	.
2GG/	.	.	.
!	!	!LO:LB:g=original	!
=45-	=45-	=45-	=45-
2FF/	in	1F	in
1F	Pa-	.	.
*	*	*lig	*
.	.	1G	pa-
2E\	.	.	.
=46-	=46-	=46-	=46-
1F	.	1F	.
*	*	*Xlig	*
2C/	.	2E/	.
2BB-/	.	1F/	.
=47-	=47-	=47-	=47-
2.C/	.	.	.
.	.	2E/	-tri-
4C/	-tri-	.	.
1FF	-a	1F	-a
=48-	=48-	=48-	=48-
2.C/	A-	1G	A-
4BB-/	.	.	.
4AA-X/	.	1A-X	.
4GG/	.	.	.
1FF/	.	.	.
=49-	=49-	=49-	=49-
.	.	1.G	.
2EE/	.	.	.
*lig	*	*	*
1FF	.	.	.
.	.	1F/	.
=50-	=50-	=50-	=50-
[1C	.	.	.
.	.	4E/	.
.	.	4D/	.
*Xlig	*	*	*
1C]	.	1E	.
=51-	=51-	=51-	=51-
0FF;;	-men-	0F;;	-men-
==	==	==	==
*-	*-	*-	*-
!!!system-decoration: [(s1,s2)]
!!!RDF**kern: > = above
!!!RDF**kern: < = below
!!!AIN: 1 bass 1 tenor
!!!ENC: Kamil Watkowski
!!!END: 2021-07-10
